X: 305562
M: 2/4
L: 1/16
K: G
|:\
dedB cBcA | dedB g2(Bc) | dedB cdcB | AGAB c2(Bc) |\
dedB cBcA | dedB g2(fe) | dfag fedc | Bgfe dcBc :|
|:\


